svg/emoji_u1f346.svg

<svg width="128" height="128" viewBox="0 0 128 128" fill="none" xmlns="http://www.w3.org/2000/svg">
<path d="M20.0298 25.8101L9.21981 32.9601C9.21981 32.9601 7.66981 36.0001 9.76981 46.2901C11.8698 56.5801 21.3498 76.9401 40.4398 96.2601C56.9098 112.92 76.1398 121.04 93.0498 121.91C109.96 122.78 118.09 111.85 118.09 111.85L20.0298 25.8101Z" fill="#8E2F97" style="fill:#8E2F97;fill:color(display-p3 0.5569 0.1843 0.5922);fill-opacity:1;"/>
<path d="M29.2798 20.58L20.0298 36.54C20.0298 36.54 25.8498 57.73 35.6598 70.92C46.2998 85.22 58.4698 97.64 77.5398 107.33C93.8098 115.6 109.03 118.74 109.03 118.74C109.03 118.74 118.96 114.77 122.92 103.76C126.69 93.28 121.7 81.79 114.55 76.21C107.4 70.63 93.0898 67.18 80.0498 60.25C66.2198 52.9 55.9698 44.31 46.9098 34.55C41.2398 28.45 39.9298 25.85 39.7398 24.75C39.6498 24.23 39.3198 23.79 38.8198 23.63L29.2798 20.58Z" fill="#A057A1" style="fill:#A057A1;fill:color(display-p3 0.6275 0.3412 0.6314);fill-opacity:1;"/>
<path d="M11.7648 53.1242C10.8265 50.5368 10.1665 48.2338 9.76982 46.2901C9.74767 46.1816 9.72593 46.0739 9.70459 45.967L14.4801 34.476L19.8801 37.676C19.8801 37.676 19.1801 40.466 17.5801 44.526C16.7435 46.639 14.7837 50.7753 11.7648 53.1242Z" fill="#783879" style="fill:#783879;fill:color(display-p3 0.4715 0.2197 0.4750);fill-opacity:1;"/>
<path d="M41.5942 28.2387C42.5888 29.6303 44.0848 31.4714 46.3155 33.9061C44.94 34.8063 43.0996 35.5919 40.7399 35.936C35.4599 36.706 31.9399 34.866 31.9399 34.866C31.9399 34.866 32.4799 37.386 31.4799 41.906C30.7999 44.996 28.0899 49.526 26.3299 49.676C24.5699 49.826 23.0999 47.876 23.0999 47.876L21.9998 42.5L21.3699 31.186L32.6999 27.896L41.5942 28.2387Z" fill="#783879" style="fill:#783879;fill:color(display-p3 0.4715 0.2197 0.4750);fill-opacity:1;"/>
<path d="M22.7099 38.01L21.8999 43.75C21.8999 43.75 23.3699 45.7 25.1299 45.55C26.8899 45.4 29.5999 40.87 30.2799 37.78C31.2799 33.26 30.7399 30.74 30.7399 30.74C30.7399 30.74 34.2599 32.58 39.5399 31.81C44.8199 31.04 47.4999 28.06 48.1899 26.53C48.8799 25 48.7299 23.31 47.9599 22.93C47.1899 22.55 43.4399 24.23 43.4399 24.23L31.4999 23.77L20.1699 27.06L22.7099 38.01Z" fill="#597D1E" style="fill:#597D1E;fill:color(display-p3 0.3492 0.4917 0.1168);fill-opacity:1;"/>
<path d="M3.0001 46.41C3.0001 46.41 1.4101 47.01 1.8901 48.77C2.2301 49.99 5.1501 51.92 9.0401 49.97C12.9301 48.02 15.4101 42.85 16.3801 40.4C17.9801 36.34 18.6801 33.55 18.6801 33.55L13.2801 30.35L8.4801 41.9C8.4801 41.9 6.3201 45.55 3.0001 46.41Z" fill="#BDCF46" style="fill:#BDCF46;fill:color(display-p3 0.7412 0.8118 0.2745);fill-opacity:1;"/>
<path d="M3.0001 46.41C3.0001 46.41 1.4101 47.01 1.8901 48.77C2.2301 49.99 5.1501 51.92 9.0401 49.97C12.9301 48.02 15.4101 42.85 16.3801 40.4C17.9801 36.34 18.6801 33.55 18.6801 33.55L13.2801 30.35L8.4801 41.9C8.4801 41.9 6.3201 45.55 3.0001 46.41Z" fill="#54781A" style="fill:#54781A;fill:color(display-p3 0.3307 0.4708 0.1020);fill-opacity:1;"/>
<path d="M11.0102 20.2C11.0102 20.2 7.77016 14.87 7.41016 11.69C7.11016 8.98997 8.37016 7.31997 9.02016 6.48997C10.0202 5.20997 12.1102 4.37997 13.4802 5.10997C15.1802 6.00997 15.1602 7.72997 16.2702 9.95997C17.3802 12.19 19.2902 15.55 19.2902 15.55C19.2902 15.55 23.1302 14.33 28.7002 16.26C34.2702 18.19 36.7302 20.7 40.1502 21.67C43.5702 22.64 47.7502 21.36 47.9702 22.94C48.1902 24.52 42.6902 27.78 37.9302 28C33.1702 28.22 30.2002 25.55 28.5602 26.59C26.9202 27.63 28.2002 33.97 26.7302 38.5C25.5602 42.1 22.6702 43.91 21.9202 43.81C21.7902 43.79 18.4402 38.64 17.7802 37.23C17.1102 35.82 15.8502 32.25 13.9902 35C12.1302 37.75 12.5202 41.91 8.86016 45.11C6.15016 47.48 3.48016 47.27 2.88016 46.62C2.69016 46.41 5.26016 44.62 5.26016 42.46C5.26016 40.3 4.64016 32.09 5.76016 28.07C7.24016 22.72 11.0102 20.2 11.0102 20.2Z" fill="#6F9823" style="fill:#6F9823;fill:color(display-p3 0.4353 0.5961 0.1373);fill-opacity:1;"/>
</svg>

<?xml version="1.0" encoding="utf-8"?>
<!-- Generator: Adobe Illustrator 25.2.3, SVG Export Plug-In . SVG Version: 6.00 Build 0)  -->
<svg version="1.1" id="Layer_2" xmlns="http://www.w3.org/2000/svg" xmlns:xlink="http://www.w3.org/1999/xlink" x="0px" y="0px"
	 viewBox="0 0 128 128" style="enable-background:new 0 0 128 128;" xml:space="preserve">
<path style="fill:#8E2F97;" d="M20.03,25.81L9.22,32.96c0,0-1.55,3.04,0.55,13.33s11.58,30.65,30.67,49.97
	c16.47,16.66,35.7,24.78,52.61,25.65s25.04-10.06,25.04-10.06L20.03,25.81z"/>
<path style="fill:#A057A1;" d="M29.28,20.58l-9.25,15.96c0,0,5.82,21.19,15.63,34.38c10.64,14.3,22.81,26.72,41.88,36.41
	c16.27,8.27,31.49,11.41,31.49,11.41s9.93-3.97,13.89-14.98c3.77-10.48-1.22-21.97-8.37-27.55s-21.46-9.03-34.5-15.96
	c-13.83-7.35-24.08-15.94-33.14-25.7c-5.67-6.1-6.98-8.7-7.17-9.8c-0.09-0.52-0.42-0.96-0.92-1.12L29.28,20.58z"/>
<path style="fill:#BDCF46;" d="M22.71,38.01l-0.81,5.74c0,0,1.47,1.95,3.23,1.8c1.76-0.15,4.47-4.68,5.15-7.77
	c1-4.52,0.46-7.04,0.46-7.04s3.52,1.84,8.8,1.07c5.28-0.77,7.96-3.75,8.65-5.28c0.69-1.53,0.54-3.22-0.23-3.6
	c-0.77-0.38-4.52,1.3-4.52,1.3l-11.94-0.46l-11.33,3.29L22.71,38.01z"/>
<path style="fill:#BDCF46;" d="M3,46.41c0,0-1.59,0.6-1.11,2.36c0.34,1.22,3.26,3.15,7.15,1.2s6.37-7.12,7.34-9.57
	c1.6-4.06,2.3-6.85,2.3-6.85l-5.4-3.2L8.48,41.9C8.48,41.9,6.32,45.55,3,46.41z"/>
<path style="fill:#6F9823;" d="M11.01,20.2c0,0-3.24-5.33-3.6-8.51c-0.3-2.7,0.96-4.37,1.61-5.2c1-1.28,3.09-2.11,4.46-1.38
	c1.7,0.9,1.68,2.62,2.79,4.85s3.02,5.59,3.02,5.59s3.84-1.22,9.41,0.71s8.03,4.44,11.45,5.41c3.42,0.97,7.6-0.31,7.82,1.27
	S42.69,27.78,37.93,28s-7.73-2.45-9.37-1.41c-1.64,1.04-0.36,7.38-1.83,11.91c-1.17,3.6-4.06,5.41-4.81,5.31
	c-0.13-0.02-3.48-5.17-4.14-6.58c-0.67-1.41-1.93-4.98-3.79-2.23c-1.86,2.75-1.47,6.91-5.13,10.11c-2.71,2.37-5.38,2.16-5.98,1.51
	c-0.19-0.21,2.38-2,2.38-4.16c0-2.16-0.62-10.37,0.5-14.39C7.24,22.72,11.01,20.2,11.01,20.2z"/>
</svg>
